!!!SOCIAL_FUNCTION: songs of the deer society
!!!SOCIAL_FUNCTION2: Deer Society song
!!!PDT:	1929
!!!LING_GROUP: Caddoan
!!!LANG: Non-Tone
!!!REG: Oklahoma
!!!COM: Anon.
!!!OTL: How Near is the Mornging?
!!!ODT: <1920//
!!!MPN: Mark Evarts
!!!MLC: Pawnee, Oklahoma, United States of America
!! Song was recorded either 1919 or 1920.
!!!AGN: monody
!!!AMT: irregular
!!!RWG: Transcribed pitches, durations, and meters are only approximate.
!! Drum not recorded
**kern
*ICvox
*Imale
*clefF4
*k[f#c#g#d#]
*[A,A]
*>A
*M3/4
*MM120
=!|:1
4.d#
8c#
4d#
*M2/4
=2
4c#
4c#
=3
4c#
4c#
=4
2c#
*M3/4
=5
4.d#
8c#
4d#
*M2/4
=6
4G#
8G#
8F#
=7
8.G#
16G#
4F#
=8
4E
4C#
*M3/4
=9
4C#
4C#
4C#
*M2/4
=10
8.F#
16F#
4G#
=11
4E
4C#
*M3/4
=12
4C#
4C#
4C#
*M2/4
=13
8.C#
16C#
4C#
=14
4C#
4C#
*M3/4
=15
4C#
4C#
4C#
*M2/4
=16
8.G#
16G#
4F#
=17
4E
4C#
*M3/4
=18
4C#
4C#
4C#
=:|!
*-
!!!HAO:    Two songs of the [deer] society were recorded by
!!!HAO: Mark Evarts who said that his father was one of its
!!!HAO: dancers.  He said that the ceremony of the Deer
!!!HAO: Society lasted four days and nights and that this
!!!HAO: song was sung just before daylight.
!!!HTX: The chief speaks to his attendant, saying,
!!!HTX: "Go out and see how the stars stand.
!!!HTX:   Tell us how near is the morning."
!!!HTX: The attendant returns and says,
!!!HTX: "It is almost morning."
!!!HTX: The chief says to the dancers,
!!!HTX: "Wake up men.
!!!HTX:   It is almost morning."
!!!HTX: The chief speaks to his attendant, saying,
!!!HTX: "Go out and see how the stars stand.
!!!HTX:   Tell us how near is the morning."
!!!HTX: The attendant returns and says,
!!!HTX: "The morning star is coming up."
!!!HTX: The chief says to the singers,
!!!HTX: "Change the song.
!!!HTX:   The morning star is rising."
!!!CNT: Pawnee
!!!TXO: Pawnee
!!!OCY: United States
!!!OCL: Frances Densmore
!!!YOR: Frances Densmore, "Pawnee Music"
!!!YOR: Bulletin 93, page 48, No. 21
!!!PPR: Smithsonian Institution, Bureau of American Ethnology
!!!PPR: Government Printing Office
!!!PDT: 1926
!!!PPP: Washington, DC, United States of America
!!!YEC: Electronic Copyright 2000 David Huron
!!!YER: September 2000
!!!YEN: United States of America
!!!ENC: David Huron
!!!RDT: September 3, 2000
!!!EEV: Release 1.0
!!!AIN: vox
